<?xml version="1.0" encoding="UTF-8"?>
<map version="1.10" tiledversion="1.11.0" orientation="orthogonal" renderorder="right-down" width="20" height="15" tilewidth="16" tileheight="16" infinite="0" nextlayerid="2" nextobjectid="1">
 <tileset firstgid="1" source="idlerun.tsx"/>
 <layer id="1" name="Tile Layer 1" width="20" height="15">
  <data encoding="csv">
9,1,1,1,1,1,1,1,1,1,1,1,1,1,1,1,1,1,1,12,
9,1,1,1,1,1,1,1,1,1,1,1,1,1,1,1,1,1,1,12,
9,1,1,1,1,1,1,1,1,1,1,1,1,1,1,1,1,1,1,12,
9,1,1,1,1,1,1,1,1,1,1,1,1,1,1,1,1,1,1,12,
9,1,12,13,2,3,1,1,1,1,1,2,3,12,13,1,1,1,1,12,
9,1,1,1,1,1,1,1,1,1,1,1,1,1,1,1,1,1,1,12,
9,1,1,1,1,1,1,10,11,1,1,1,1,1,1,1,1,1,10,11,
9,1,1,1,1,1,1,6,7,1,1,1,1,1,1,1,1,1,6,7,
9,1,1,1,1,1,1,6,7,1,1,1,1,1,1,1,1,1,6,7,
9,1,1,4,5,4,5,4,5,4,5,4,5,1,1,1,4,5,4,5,
9,1,1,1,1,1,1,1,1,1,1,1,1,1,1,1,1,1,1,12,
9,1,1,1,1,1,1,1,1,1,1,1,1,1,1,1,1,1,8,9,
9,1,1,1,1,1,1,1,1,1,1,1,1,1,1,1,8,9,8,9,
9,1,1,1,1,1,1,1,1,1,1,1,1,1,8,9,8,9,8,9,
2,3,2,3,2,3,2,3,2,3,2,3,2,3,2,3,2,3,2,3
</data>
 </layer>
</map>
